images/ib-ico-12.svg

<?xml version="1.0" encoding="UTF-8" standalone="no"?>
<svg width="108px" height="86px" viewBox="0 0 108 86" version="1.1" xmlns="http://www.w3.org/2000/svg" xmlns:xlink="http://www.w3.org/1999/xlink" xmlns:sketch="http://www.bohemiancoding.com/sketch/ns">
    <!-- Generator: Sketch 3.3.3 (12081) - http://www.bohemiancoding.com/sketch -->
    <title>ib-ico-1</title>
    <desc>Created with Sketch.</desc>
    <defs>
        <linearGradient x1="49.08522%" y1="50%" x2="49.3895484%" y2="49.2577567%" id="linearGradient-1">
            <stop stop-color="#3498DB" offset="0%"></stop>
            <stop stop-color="#1A699C" offset="100%"></stop>
        </linearGradient>
    </defs>
    <g id="Page-1" stroke="none" stroke-width="1" fill="none" fill-rule="evenodd" sketch:type="MSPage">
        <g id="ib-ico-1" sketch:type="MSArtboardGroup" fill="url(#linearGradient-1)">
            <path d="M66.5235708,26.7046255 L37.4021965,55.2201043 C34.2710444,58.3522939 29.9478135,60.2913672 25.1805359,60.2913672 C15.6459807,60.2913672 7.88865,52.5340365 7.88865,42.9994813 C7.88865,33.464926 15.6459807,25.7086328 25.1805359,25.7086328 C29.9478135,25.7086328 34.2710444,27.6477061 37.4021965,30.7788582 L40.3631998,33.677612 C39.8703909,34.7638665 39.590268,35.9663202 39.590268,37.2362109 C39.590268,39.6245185 40.5582484,41.7856151 42.1217494,43.3511912 L54.3506724,31.1222682 C52.7861339,29.5587671 50.6239997,28.5907867 48.2356922,28.5907867 C46.8371524,28.5907867 45.5195371,28.9300467 44.3502831,29.5193424 L41.4753917,26.7046255 C37.3005222,22.5307936 31.5372519,19.944325 25.1805359,19.944325 C12.4681415,19.944325 2.12537968,30.2870868 2.12537968,42.9994813 C2.12537968,55.7118757 12.4681415,66.055675 25.1805359,66.055675 C31.5362144,66.055675 37.3005222,63.4692064 41.4764292,59.294337 L70.5978035,30.7778207 C73.7289556,27.6466686 78.0521865,25.7075953 82.8184266,25.7075953 C92.3540193,25.7075953 100.110313,33.4638885 100.110313,42.9994813 C100.110313,52.535074 92.3540193,60.2913672 82.8184266,60.2913672 C79.4268639,60.2913672 76.2718495,59.296412 73.6003065,57.6032244 C73.9655039,56.6456189 74.1730023,55.6122764 74.1730023,54.5270594 C74.1730023,52.1387519 73.2050219,49.9776552 71.6415209,48.4120791 L69.4285496,50.6260879 L63.6642418,44.8617801 L61.6266067,46.8994152 L67.3909145,52.663723 L63.6642418,56.3903957 L57.899934,50.6260879 L55.8622989,52.663723 L61.6266067,58.4280308 L59.4125979,60.6410021 C60.9781739,62.2055407 63.1392706,63.1724836 65.5275781,63.1724836 C67.0921167,63.1724836 68.5560185,62.7502242 69.8207217,62.025017 C73.5256071,64.5627234 78.0003118,66.055675 82.8184266,66.055675 C95.5318585,66.055675 105.87462,55.7118757 105.87462,42.9994813 C105.87462,30.2870868 95.5318585,19.944325 82.8184266,19.944325 C76.4627481,19.944325 70.6984403,22.5307936 66.5235708,26.7046255 Z" id="Shape" sketch:type="MSShapeGroup"></path>
        </g>
    </g>
</svg>

<svg width="108" height="86" xmlns="http://www.w3.org/2000/svg"><defs><linearGradient x1="49.085%" y1="50%" x2="49.39%" y2="49.258%" id="linearGradient-1"><stop stop-color="#3498DB" offset="0%"/><stop stop-color="#1A699C" offset="100%"/></linearGradient></defs><g id="Page-1" stroke="none" stroke-width="1" fill="none" fill-rule="evenodd"><g id="ib-ico-1" fill="url(#linearGradient-1)"><path d="M66.524 26.705L37.402 55.22a17.235 17.235 0 01-12.221 5.071c-9.535 0-17.292-7.757-17.292-17.292 0-9.534 7.757-17.29 17.292-17.29 4.767 0 9.09 1.939 12.221 5.07l2.961 2.899a8.626 8.626 0 001.759 9.674l12.229-12.23a8.624 8.624 0 00-10-1.603l-2.876-2.814c-4.174-4.174-9.938-6.76-16.294-6.76-12.713 0-23.056 10.342-23.056 23.054 0 12.713 10.343 23.057 23.056 23.057 6.355 0 12.12-2.587 16.295-6.762l29.122-28.516a17.238 17.238 0 0112.22-5.07c9.536 0 17.292 7.756 17.292 17.291 0 9.536-7.756 17.292-17.292 17.292a17.16 17.16 0 01-9.218-2.688 8.626 8.626 0 00-1.959-9.191l-2.212 2.214-5.765-5.764-2.037 2.037 5.764 5.765-3.727 3.726-5.764-5.764-2.038 2.038 5.765 5.764-2.214 2.213a8.622 8.622 0 006.115 2.531 8.604 8.604 0 004.293-1.147 22.928 22.928 0 0012.997 4.03c12.714 0 23.057-10.343 23.057-23.056 0-12.712-10.343-23.055-23.057-23.055-6.355 0-12.12 2.587-16.294 6.76z" id="Shape"/></g></g></svg>
